www/assets/icons/cookie.svg

<svg width="24" height="24" viewBox="0 0 24 24" xmlns="http://www.w3.org/2000/svg" fill='currentColor'><path d="M21.9497 11.0039C20.1597 10.9739 18.2497 9.05392 19.2697 6.78392C16.2897 7.78392 13.4997 5.19392 14.0797 2.22392C6.94973 0.723922 1.99973 6.59392 1.99973 12.0139C1.99973 17.5339 6.47973 22.0139 11.9997 22.0139C17.8897 22.0139 22.5397 16.9339 21.9497 11.0039ZM8.49973 15.0139C7.66973 15.0139 6.99973 14.3439 6.99973 13.5139C6.99973 12.6839 7.66973 12.0139 8.49973 12.0139C9.32973 12.0139 9.99973 12.6839 9.99973 13.5139C9.99973 14.3439 9.32973 15.0139 8.49973 15.0139ZM10.4997 10.0139C9.66973 10.0139 8.99973 9.34392 8.99973 8.51392C8.99973 7.68392 9.66973 7.01392 10.4997 7.01392C11.3297 7.01392 11.9997 7.68392 11.9997 8.51392C11.9997 9.34392 11.3297 10.0139 10.4997 10.0139ZM14.9997 16.0139C14.4497 16.0139 13.9997 15.5639 13.9997 15.0139C13.9997 14.4639 14.4497 14.0139 14.9997 14.0139C15.5497 14.0139 15.9997 14.4639 15.9997 15.0139C15.9997 15.5639 15.5497 16.0139 14.9997 16.0139Z"/></svg>

<svg xmlns="http://www.w3.org/2000/svg" width="24" height="24" viewBox="0 0 24 24" fill='currentColor'><path d="M21.95 11.004c-1.79-.03-3.7-1.95-2.68-4.22-2.98 1-5.77-1.59-5.19-4.56C6.95.724 2 6.594 2 12.014c0 5.52 4.48 10 10 10 5.89 0 10.54-5.08 9.95-11.01M8.5 15.014c-.83 0-1.5-.67-1.5-1.5s.67-1.5 1.5-1.5 1.5.67 1.5 1.5-.67 1.5-1.5 1.5m2-5c-.83 0-1.5-.67-1.5-1.5s.67-1.5 1.5-1.5 1.5.67 1.5 1.5-.67 1.5-1.5 1.5m4.5 6c-.55 0-1-.45-1-1s.45-1 1-1 1 .45 1 1-.45 1-1 1"/></svg>
